app/_includes/svgs/technology-logos/logo_gridset-app.min.svg

<svg xmlns="http://www.w3.org/2000/svg" viewBox="0 0 150 100" enable-background="new 0 0 150 100"><g fill="#4D4D4D"><path d="M0 .2h13.8v67.7h-13.8z"/><path d="M24.9.2h20.9v67.7h-20.9z"/><path d="M58.4.2h28.2v67.7h-28.2z"/></g></svg>

<svg xmlns="http://www.w3.org/2000/svg" viewBox="0 0 150 100" enable-background="new 0 0 150 100"><g fill="#4D4D4D"><path d="M0 0.2H13.8V67.9H0z"/><path d="M24.9 0.2H45.8V67.9H24.9z"/><path d="M58.4 0.2H86.6V67.9H58.4z"/></g></svg>
